X: 36260
T: Seals In The Town
R: polka
M: 2/4
K: Bminor
ef/e/|:fd BA/B/|cA ce|fd BA/B/|c2 de|
fd BA/B/|cA ce|dc A/B/c|1 B2 ef/e/:|2 B2 B2||
|:bb a/g/f|g/f/e f2|dc B/c/d|fd c2|
bb a/g/f|g/f/e f2|dc A/B/c|1 B2 B2:|2 B2 ef/e/||

